public/svg/icon/qsp.svg

<svg xmlns="http://www.w3.org/2000/svg" xmlns:xlink="http://www.w3.org/1999/xlink" width="32" height="32" viewBox="0 0 32 32"><defs><linearGradient id="qsp-c" x1="50%" x2="50%" y1="0%" y2="100%"><stop offset="0%" stop-color="#FFF" stop-opacity=".5"/><stop offset="100%" stop-opacity=".5"/></linearGradient><circle id="qsp-b" cx="16" cy="15" r="15"/><filter id="qsp-a" width="111.7%" height="111.7%" x="-5.8%" y="-4.2%" filterUnits="objectBoundingBox"><feOffset dy=".5" in="SourceAlpha" result="shadowOffsetOuter1"/><feGaussianBlur in="shadowOffsetOuter1" result="shadowBlurOuter1" stdDeviation=".5"/><feComposite in="shadowBlurOuter1" in2="SourceAlpha" operator="out" result="shadowBlurOuter1"/><feColorMatrix in="shadowBlurOuter1" values="0 0 0 0 0 0 0 0 0 0 0 0 0 0 0 0 0 0 0.199473505 0"/></filter><path id="qsp-e" d="M11.5,15 C11.5,12.5186413 13.5186413,10.5 16,10.5 C18.4813587,10.5 20.5,12.5186413 20.5,15 C20.5,15.6531522 20.3570109,16.2723913 20.1055978,16.8330978 L17.136413,13.863587 L14.86375,16.13625 L17.8330978,19.1055978 C17.2568408,19.3652454 16.6320514,19.4996727 16,19.5 C13.5184783,19.5 11.5,17.4813587 11.5,15 M23.3132759,15 C23.3132759,13.532069 22.8766207,12.1679483 22.1321034,11.0224655 L25,8.15441379 L22.8455862,6 L19.9775345,8.86789655 C18.8320517,8.12337931 17.467931,7.68672414 16,7.68672414 C14.532069,7.68672414 13.1679483,8.12337931 12.0224655,8.86789655 L9.15441379,6 L7,8.15441379 L9.86789655,11.0224655 C9.12337931,12.1679483 8.68672414,13.532069 8.68672414,15 C8.68672414,16.467931 9.12353448,17.8320517 9.86805172,18.9775345 L7,21.8455862 L9.15441379,24 L12.0224655,21.1319483 C13.1681034,21.8766207 14.532069,22.3132759 16,22.3132759 C17.467931,22.3132759 18.8320517,21.8766207 19.9775345,21.1319483 L22.8455862,24 L25,21.8455862 L22.1319483,18.9775345 C22.8766207,17.8318966 23.3132759,16.467931 23.3132759,15"/><filter id="qsp-d" width="119.4%" height="119.4%" x="-9.7%" y="-6.9%" filterUnits="objectBoundingBox"><feOffset dy=".5" in="SourceAlpha" result="shadowOffsetOuter1"/><feGaussianBlur in="shadowOffsetOuter1" result="shadowBlurOuter1" stdDeviation=".5"/><feColorMatrix in="shadowBlurOuter1" values="0 0 0 0 0 0 0 0 0 0 0 0 0 0 0 0 0 0 0.204257246 0"/></filter></defs><g fill="none" fill-rule="evenodd"><use fill="#000" filter="url(#qsp-a)" xlink:href="#qsp-b"/><use fill="#454545" xlink:href="#qsp-b"/><use fill="url(#qsp-c)" style="mix-blend-mode:soft-light" xlink:href="#qsp-b"/><circle cx="16" cy="15" r="14.5" stroke="#000" stroke-opacity=".097"/><g><use fill="#000" filter="url(#qsp-d)" xlink:href="#qsp-e"/><use fill="#FFF" xlink:href="#qsp-e"/></g></g></svg>

<svg xmlns="http://www.w3.org/2000/svg" xmlns:xlink="http://www.w3.org/1999/xlink" width="32" height="32" viewBox="0 0 32 32"><defs><filter id="a" width="111.7%" height="111.7%" x="-5.8%" y="-4.2%" filterUnits="objectBoundingBox"><feOffset dy=".5" in="SourceAlpha" result="shadowOffsetOuter1"/><feGaussianBlur in="shadowOffsetOuter1" result="shadowBlurOuter1" stdDeviation=".5"/><feComposite in="shadowBlurOuter1" in2="SourceAlpha" operator="out" result="shadowBlurOuter1"/><feColorMatrix in="shadowBlurOuter1" values="0 0 0 0 0 0 0 0 0 0 0 0 0 0 0 0 0 0 0.199473505 0"/></filter><filter id="d" width="119.4%" height="119.4%" x="-9.7%" y="-6.9%" filterUnits="objectBoundingBox"><feOffset dy=".5" in="SourceAlpha" result="shadowOffsetOuter1"/><feGaussianBlur in="shadowOffsetOuter1" result="shadowBlurOuter1" stdDeviation=".5"/><feColorMatrix in="shadowBlurOuter1" values="0 0 0 0 0 0 0 0 0 0 0 0 0 0 0 0 0 0 0.204257246 0"/></filter><linearGradient id="c" x1="50%" x2="50%" y1="0%" y2="100%"><stop offset="0%" stop-color="#FFF" stop-opacity=".5"/><stop offset="100%" stop-opacity=".5"/></linearGradient><circle id="b" cx="16" cy="15" r="15"/><path id="e" d="M11.5 15c0-2.481 2.019-4.5 4.5-4.5s4.5 2.019 4.5 4.5c0 .653-.143 1.272-.394 1.833l-2.97-2.97-2.272 2.273 2.97 2.97A4.468 4.468 0 0116 19.5a4.505 4.505 0 01-4.5-4.5m11.813 0a7.273 7.273 0 00-1.18-3.978L25 8.154 22.846 6l-2.868 2.868A7.273 7.273 0 0016 7.687a7.273 7.273 0 00-3.978 1.18L9.154 6 7 8.154l2.868 2.868A7.273 7.273 0 008.687 15a7.28 7.28 0 001.181 3.978L7 21.846 9.154 24l2.868-2.868A7.272 7.272 0 0016 22.313a7.272 7.272 0 003.978-1.181L22.846 24 25 21.846l-2.868-2.868A7.272 7.272 0 0023.313 15"/></defs><g fill="none" fill-rule="evenodd"><use fill="#000" filter="url(#a)" xlink:href="#b"/><use fill="#454545" xlink:href="#b"/><use fill="url(#c)" style="mix-blend-mode:soft-light" xlink:href="#b"/><circle cx="16" cy="15" r="14.5" stroke="#000" stroke-opacity=".097"/><use fill="#000" filter="url(#d)" xlink:href="#e"/><use fill="#FFF" xlink:href="#e"/></g></svg>
